X:1
T:Trop endurer
T:Trop endurer
T:Orlande de Lassus
C:Orlande de Lassus
%%score [ 1 2 3 4 ]
L:1/8
Q:1/4=80
M:2/2
K:F
V:1 treble nm="Superius" snm="S"
V:2 treble nm="Altus" snm="A"
V:3 treble-8 nm="Tenor" snm="T"
V:4 bass nm="Bassus" snm="B"
V:1
 z2 c4 d2- | d2 c2 B2 c2- | c2 B2 e4 | d2 c2 c4 | A2 A2 A2 =B2 | c2 d3 c c2- | %6
w: Trop en-|* du- rer, sans|_ a- voir|al- le- gean-|ce, sans a- voir|al- le- * gean-|
"^-natural" c2 B2 c4 | g4 e2 c2- | c2 d4 B2- | B2 c2 A2 B2- | B2 B2 B2 G2 | z2 c4 B2- | %12
w: * * ce,|cau- se'à l'es-|* prit si|_ tres gran- de|_ gre- van- ce,|que mort|
 B2 AG A2 =B2 | c6 c2 | A4 A4 | A6 G2 | G6 G2 | A2 B2 A4 | z4 z2 d2- | d2 c2 A2 =B2- | %20
w: _ _ _ _ sen|suit sans|a- voir|re- con-|fort, de|son vou- loir,|luy|_ fai- sant son|
 B2 c2 A2 f2 | f2 c2 d2 c2 | c2 f4 e2 | d4 c4 | z2 c3 c A2 | f2 f2 d3 c | BG c4 B2 | c6 f2- | %28
w: _ ef- fort, luy|fai- sant son ef-|fort, que brief|se- cours|luy fe- ra|al- le- gean- *||ce, luy|
 ff d2 B2 B2 | A2 A2 z2 c2- | cc A2 d2 d2 | =B4 c2 c2- | cc A4 B2 | A2 F4 E2 | F8 |] %35
w: _ fe- ra al- le-|gean- ce, luy|_ fe- ra al- le-|gean- ce, luy|_ fe- ra al-|le- gean- *|ce.|
V:2
 A8 | G6 G2 | G4 G4 | G2 G2 A2 G2 | F2 F4 G2 | E2 D2 GG A2 | G2 G4 E2 | C2 G2 c4 | A2 F2 B2 G2 | %9
w: Trop|en- du-|rer, sans|a- voir al- le-|gean- ce, sans|a- voir al- le- gean-|ce, cau- se'à|l'es- prit, cau-|se'à l'es- prit si|
 G2 G2 F4- | F2 F2 GA B2- | BA/G/ A2 G2 G2- | G2 F2 D4 | G4 G4 | C2 F2 F2 F2 | E2 E2 F2 E2 | %16
w: tres gran- de|_ gre- van- * *|* * * ce que mort|_ _ sen|suit sans|a- voir re- con-|fort, sans a- voir|
 D2 D2 E4 | z4 z2 C2 | D2 _E2 DCDE | F2 A4 G2 | DD E2 F2 A2 | A2 A2 G2 G2 | A2 A2 B2 c2- | %23
w: re- con- fort,|de|son vou- loir, _ _ _|_ luy fai-|sant son ef- fort, luy|fai- sant son ef-|fort, que brief se-|
 cB/A/ B2 A2 A2 | G2 G2 A2 F2- | FF D2 B2 B2 | G4 G2 G2- | GG A2 A,2 A,2 | B,3 C D4 | C2 c3 c A2 | %30
w: * * * * cours, que|brief se- cours luy|_ fe- ra al- le-|gean- ce, luy|_ fe- ra al- le-|gean- * *|ce, luy fe- ra|
 G2 c2 B2 F2 | z2 G3 G E2 | C3 C D2 F2- | F2 C2 C4 | C8 |] %35
w: al- le- gean- ce,|luy fe- ra,-|luy fe- ra al-|* le- gean-|ce.|
V:3
 f8 | _e8 | d4 c3 c | d2 e2 f2 c2 | c4 d2 G2 | g3 g e2 f2 | d4 c2 g2- | g2 e2 c2 e2 | %8
w: Trop|en-|du- rer, sans|a- voir al- le-|gean- ce, sans|a- voir al- le-|gean- ce, cau-|* se'à l'es- prit|
 f2 d2 f2 _e2- | e2 _e2 d4- | d4 d4 | f4 d4- | d4 f4- | f2 ed e4 | f2 c2 d2 c2 | cB AG F2 c2- | %16
w: si tres- gran- de|_ gre- van-|* ce,|que mort|_ sen|_ _ _ _|suit sans a- voir|re- * * * * *|
"^-natural" c2 B2 c2 c2 | f2 d2 f4- | f2 g4 f2 | d2 e2 f2 d2 | g4 c4 | d2 f3 e/d/ e2 | %22
w: * con- fort, de|son vou- loir,|_ luy fai-|sant son ef- fort,|luy fai-|sant son _ _ _|
 f2 c2 z2 e2 | f2 g2 c2 f2- | fd e2 f2 c2 | d2 B3 B G2 | _e2 e2 d4 | c4 f3 f | d3 e f2 g2 | %29
w: ef- fort, que|brief se- cours luy-|_ fe- ra, luy fe-|ra, luy fe- ra|al- le- gean-|ce, luy fe-|ra _ _ al-|
 e2 f2 e4- | e2 f3 f d2 | d2 d2 e2 A2 | z2 f3 f d2 | c2 A2 G4 | F8 |] %35
w: le- gean- ce,|_ luy fe- ra|al- le- gean- ce,|luy fe- ra|al- le- gean-|ce.|
V:4
 F,8 | G,4 G,4- | G,4 C,2 C2 | =B,2 C2 F,2 E,2 | F,4 D,2 D2 | C2 =B,2 C2 F,2 | G,4 C,4 | %7
w: Trop|en- du-|* rer, sans|a- voir al- le-|gean- ce, sans|a- voir al- le-|gean- ce,|
 z2 C4 A,2 | F,2 B,4 _E,2 | _E,2 C,2 D,2 B,,2 | B,3 A, G,4 | F,4 G,4 | D,4 D,4 | C,4 C,4 | %14
w: cau- se'à|l'es- prit si|tres gran- de gre-|van- * *|ce, que|mort sen|suit sans|
 F,3 E, D,E, F,G, | A,B, C4 C,2 | G,2 G,2 C,4 | z4 z2 F,2 | B,2 G,2 B,2 B,2- | B,2 A,2 F,2 G,2- | %20
w: a- * * * * *|* * * voir|re- con- fort,|de|son vou- loir, luy|_ fai- sant son|
 G,2 C,2 F,4 |"^-natural" z2 A,2 B,2 C2 | F,4 z4 | z4 A,4 | B,2 C2 F,4 | z8 | z4 G,3 G, | %27
w: _ ef- fort,|que brief se-|cours,|que-|brief se- cours||luy fe-|
 E,2 F,3 F, D,2 | B,,2 B,3 B, G,2 | A,2 F,2 A,3 B, | C2 F,2 B,3 B, | G,4 C3 B, | %32
w: ra al- le- gean-|ce, luy fe- ra|al- le- gean- *|* ce, luy fe-|ra al- *|
 A,G, F,E, D,2 B,,2 | F,4 C,4 | F,8 |] %35
w: * * * * * le|gean- *|ce.|

